X: 20402
T: PEEP-BO! AULD TOW-WIG
C: Copyright.--John Turnbull.
Q: "Air \`a la Comique."
%R: air, march, reel
B: W. Hamilton "Universal Tune-Book" Vol. 2 Glasgow 1846 p.40 #2
S: http://s3-eu-west-1.amazonaws.com/itma.dl.printmaterial/book_pdfs/hamiltonvol2web.pdf
Z: 2016 John Chambers <jc:trillian.mit.edu>
M: 2/4
L: 1/16
K: D
% - - - - - - - - - - - - - - - - - - - - - - - - -
|:\
.f2 .D2 (FEDE) | .E2 .A2 .F2 .d2 |\
.f2 .D2 (FEDE) | .E2 .A2 "^>"A,4 |\
.f2 .D2 (FEDE) | .E2 .A2 .F2 .d2 |\
.f2 .D2 (FEDE) | .E2 .A2 "^>"D4 H|]
(EFE^D) .E2 .c2 | .D2 .B2 .C2 .A2 |\
(EFE^D) .E2 .c2 | .D2 .B2 "^>".C4 |\
(EFE^D) .E2 .c2 | .D2 .B2 .C2 .A2 |\
.E2 .c2 .C2 .A2 | .B,2 .A2 "^>"A,4"D.C."y:|
% - - - - - - - - - - - - - - - - - - - - - - - - -

%%sep 1 1 500
%%sep 1 1 500

